X: 25153
T: Maison De Glace
R: jig
M: 6/8
K: Dmajor
|:D3 DEF|ABA AFA|B3 Bcd|cBA GFE|D3 DEF|
ABA AFA|1 B3 BAG|F3 E3:|2 B3 Bcd|c6||
|:B3 Bcd|B3 Bcd|fed edc|dcA dcA|
B3 Bcd|B3 Bcd|fed edc|1 Adc d2c:|2 Adc d3||

